X: 83
T: Laudate-pueri
N: Derived from Mar2065-Laudate-pueri.krn
C: Johannes Martini
%%abc-version 2.0
%%abcx-abcm2ps-target-version 5.9.1 (29 Sep 2008)
%%abc-creator hum2abc beta
%%abcx-conversion-date 2019/02/17 07:19:42
%%abc-edited-by Jesse Rodin
%%abc-edited-by Chris Gage 01-27-2014
%%abcx-initial-encoding-date 2014/10/06/
%%humdrum-veritas 2870184081
%%humdrum-veritas-data 1572029775
%%linebreak <none>
%%barnumbers 0
L: 1/4
M: 4/2
Q: 1/2=120
%%staves {1 2}
V: 1 clef=treble
V: 2 clef=treble-8
K: C
[V:1] A4A4 | 
[V:2] A4c4 | 
[V:1] A2A4F2 | 
[V:2] c2c4A2 | 
[V:1] G2A3GF2- | 
[V:2] B2c3BA2- | 
[V:1] F2EDE4 | 
[V:2] A2GFG4 | 
[V:1] F8 ||  
[V:2] F8 ||  
[V:1]  [K:F] F4G4 | 
[V:2]  [K:F] F4B4 | 
[V:1] A4A2A2 | 
[V:2] A4c2c2 | 
[V:1] A2B4A2- | 
[V:2] c2d4c2 | 
[V:1] A2G2A4 | 
[V:2] B4A4 | 
[V:1] z4A2A2 | 
[V:2] z4c2c2 | 
[V:1] A4F2G2 | 
[V:2] c4A2B2 | 
[V:1] A2G4F2- | 
[V:2] c4B2A2 | 
[V:1] F2E2F4 ||  
[V:2] G4F4 ||  
[V:1]  [K:C] F4G4 | 
[V:2]  [K:C] A4B4 | 
[V:1] A4A2A2 | 
[V:2] A4c2c2 | 
[V:1] A4A2B2 | 
[V:2] c4c2d2 | 
[V:1] c2B4A2- | 
[V:2] e2d4c2 | 
[V:1] A2G2A4 | 
[V:2] _B4A4 | 
[V:1] z4A4 | 
[V:2] z4c4 | 
[V:1] A2A2A4 | 
[V:2] c2c2c4 | 
[V:1] G2F2G2A2- | 
[V:2] B2A2B2c2- | 
[V:1] AGF4E2 | 
[V:2] c2A2G4 | 
[V:1] F8 ||  
[V:2] F8 ||  
[V:1]  [K:F] F4G4 | 
[V:2]  [K:F] A4B4 | 
[V:1] A4G2A2 | 
[V:2] c4B2c2 | 
[V:1] B4A2c2 | 
[V:2] d4c2c2 | 
[V:1] B2A4G2 | 
[V:2] d2A2B4 | 
[V:1] A4z4 | 
[V:2] A4z4 | 
[V:1] A4A2A2 | 
[V:2] c4c2c2 | 
[V:1] A4F2G2 | 
[V:2] c4A2B2 | 
[V:1] A2B4AG | 
[V:2] c2d4cB | 
[V:1] F2G4F2- | 
[V:2] A2G2B2A2 | 
[V:1] F2E2F4 ||  
[V:2] G4F4 ||  
[V:1] F4G4 | 
[V:2] F4B4 | 
[V:1] A4A2A2 | 
[V:2] A4c2c2 | 
[V:1] A2A2A4 | 
[V:2] c2c2c4 | 
[V:1] G4F4 | 
[V:2] B4F4 | 
[V:1] z2A2G2A2 | 
[V:2] c4B2c2 | 
[V:1] =B2c3BA2- | 
[V:2] d2c2A2c2 | 
[V:1] A2G2A4 | 
[V:2] B4A4 | 
[V:1] z4A2A2 | 
[V:2] z4c2c2 | 
[V:1] A2A2A4 | 
[V:2] c2c2c4 | 
[V:1] A2A2A4 | 
[V:2] c2c2A4 | 
[V:1] G2F2G2A2 | 
[V:2] B2A2B2c2 | 
[V:1] B3AGFF2- | 
[V:2] d2B2c2A2 | 
[V:1] F2E2F4 ||  
[V:2] G4F4 ||  
[V:1] A4A4 | 
[V:2] A4c4 | 
[V:1] A4G2A2 | 
[V:2] c4B2c2 | 
[V:1] B2A4G2 | 
[V:2] d2A2B4 | 
[V:1] A4z4 | 
[V:2] A4z4 | 
[V:1] A2A2A2A2 | 
[V:2] c2c2c2c2 | 
[V:1] A4F2G2 | 
[V:2] c4A2B2 | 
[V:1] A2G4F2- | 
[V:2] c4B2A2 | 
[V:1] F2E2F4 ||  
[V:2] G4F4 ||  
[V:1] F4G4 | 
[V:2] F4B4 | 
[V:1] A4A2A2 | 
[V:2] A4c2c2 | 
[V:1] A4A4 | 
[V:2] c4c4 | 
[V:1] B4c2B2 | 
[V:2] d4e2d2 | 
[V:1] A2B4A2- | 
[V:2] c2d4c2 | 
[V:1] A2G2A4 | 
[V:2] B4A4 | 
[V:1] z4A2A2 | 
[V:2] z4c2c2 | 
[V:1] A2A2A4 | 
[V:2] c2c2c4 | 
[V:1] G2F2G2A2 | 
[V:2] B2A2B2c2 | 
[V:1] B3AGFF2- | 
[V:2] d2B2c2A2 | 
[V:1] F2E2F4 ||  
[V:2] G4F4 ||  
[V:1] A2A2A2A2 | 
[V:2] A2A2c2c2 | 
[V:1] A2A2A4 | 
[V:2] c2c2c4 | 
[V:1] G2A2=B2c2- | 
[V:2] B2c2d2c2 | 
[V:1] c=BA4G2 | 
[V:2] A4B4 | 
[V:1] A4z4 | 
[V:2] A4z4 | 
[V:1] A2A2A2A2 | 
[V:2] c2c2c2c2 | 
[V:1] G4F2G2- | 
[V:2] B4A2G2 | 
[V:1] GFF4E2 | 
[V:2] B2A2G4 | 
[V:1] F8 ||  
[V:2] F8 ||  
[V:1] F4G4 | 
[V:2] F4B4 | 
[V:1] A4A4 | 
[V:2] A4c4 | 
[V:1] A4G2A2 | 
[V:2] c4B2c2 | 
[V:1] =B2c3BA2- | 
[V:2] d2c2A2c2 | 
[V:1] A2G2A4 | 
[V:2] B4A4 | 
[V:1] z4A4 | 
[V:2] z4c4 | 
[V:1] A4G4 | 
[V:2] c4B4 | 
[V:1] F3GA2B2- | 
[V:2] A3Bc2d2- | 
[V:1] B2AGF2G2- | 
[V:2] d2cBA2B2- | 
[V:1] G2F4E2 | 
[V:2] B2A2G4 | 
[V:1] F8 ||  
[V:2] F8 ||  
[V:1] F4G4 | 
[V:2] F4B4 | 
[V:1] A4A2A2 | 
[V:2] A4c2c2 | 
[V:1] A2A2A2A2 | 
[V:2] c2c2c2c2 | 
[V:1] A4G4 | 
[V:2] A4B4 | 
[V:1] A2B3AA2- | 
[V:2] c2d3cA2 | 
[V:1] A2G2A4 | 
[V:2] B4A4 | 
[V:1] z4A2A2 | 
[V:2] z4c2c2 | 
[V:1] A2A2A4 | 
[V:2] c2c2c4 | 
[V:1] G4F2G2 | 
[V:2] B4A2B2 | 
[V:1] A2B4AG | 
[V:2] c2d2B4 | 
[V:1] F2G3FF2- | 
[V:2] A2B2G2A2 | 
[V:1] F2E2F4 |]  
[V:2] G4F4 |]  



